app/assets/images/heroicons/micro/arrow-turn-left-up.svg

<svg width="16" height="16" viewBox="0 0 16 16" fill="none" xmlns="http://www.w3.org/2000/svg">
<path fill-rule="evenodd" clip-rule="evenodd" d="M14 13.25C14 12.8358 13.6642 12.5 13.25 12.5H6.75L6.75 4.56066L7.71967 5.53033C8.01256 5.82322 8.48744 5.82322 8.78033 5.53033C9.07322 5.23744 9.07322 4.76256 8.78033 4.46967L6.53033 2.21967C6.23744 1.92678 5.76256 1.92678 5.46967 2.21967L3.21967 4.46967C2.92678 4.76256 2.92678 5.23744 3.21967 5.53033C3.51256 5.82322 3.98744 5.82322 4.28033 5.53033L5.25 4.56066L5.25 13.25C5.25 13.6642 5.58579 14 6 14H13.25C13.6642 14 14 13.6642 14 13.25Z" fill="black"/>
</svg>

<svg xmlns="http://www.w3.org/2000/svg" viewBox="0 0 16 16" fill="currentColor" aria-hidden="true" data-slot="icon">
  <path fill-rule="evenodd" d="M14 13.25a.75.75 0 0 0-.75-.75h-6.5V4.56l.97.97a.75.75 0 0 0 1.06-1.06L6.53 2.22a.75.75 0 0 0-1.06 0L3.22 4.47a.75.75 0 0 0 1.06 1.06l.97-.97v8.69c0 .414.336.75.75.75h7.25a.75.75 0 0 0 .75-.75Z" clip-rule="evenodd"/>
</svg>
